**kern	**kern	**kern	**kern	**kern
*MM60	*MM60	*MM60	*MM60	*MM60
*k[b-]	*k[b-]	*k[b-]	*k[b-]	*k[b-]
*M2/4	*M2/4	*M2/4	*M2/4	*M2/4
*tb32	*tb32	*tb32	*tb32	*tb32
=1	=1	=1	=1	=1
2r	4cc	2r	2r	2r
.	4cc	.	.	.
=2	=2	=2	=2	=2
2r	8a	2r	2r	2r
.	8cc	.	.	.
.	8e	.	.	.
.	8cc	.	.	.
=3	=3	=3	=3	=3
2r	8f	2r	2r	2r
.	8cc	.	.	.
.	8g	.	.	.
.	8cc	.	.	.
=4	=4	=4	=4	=4
4ff	8a	2r	2r	2r
.	8g	.	.	.
4ff	8a	.	.	.
.	8b-	.	.	.
=5	=5	=5	=5	=5
8ee	4cc	2r	2r	2r
8gg	.	.	.	.
8b	4g	.	.	.
8gg	.	.	.	.
=6	=6	=6	=6	=6
8cc	4a	2r	2r	2r
8gg	.	.	.	.
8dd	4b	.	.	.
8gg	.	.	.	.
=7	=7	=7	=7	=7
8ee	8cc	4c	2r	2r
8cc	8e	.	.	.
8dd	8f	4c	.	.
8ee	8g	.	.	.
=8	=8	=8	=8	=8
4ff	4a	8A	2r	2r
.	.	8c	.	.
4gg	4b-	8E	.	.
.	.	8c	.	.
=9	=9	=9	=9	=9
4ff	4a	8F	2r	2r
.	.	8c	.	.
4ee	4g	8G	.	.
.	.	8c	.	.
=10	=10	=10	=10	=10
4ff	4f	8A	2r	2r
.	.	8G	.	.
4r	4f	8A	.	.
.	.	8B-	.	.
=11	=11	=11	=11	=11
2r	8e	4c	2r	2r
.	8g	.	.	.
.	8B	4G	.	.
.	8g	.	.	.
=12	=12	=12	=12	=12
2r	8c	4A	2r	2r
.	8g	.	.	.
.	8d	4B	.	.
.	8g	.	.	.
=13	=13	=13	=13	=13
2r	4e	8c	2r	4C
.	.	8G	.	.
.	8f	8A	.	4C
.	8g	8B-	.	.
=14	=14	=14	=14	=14
2r	4a	4c	2r	8AA
.	.	.	.	8C
.	4b-	[4g	.	8EE
.	.	.	.	8C
=15	=15	=15	=15	=15
2r	4a	8g]	4c	8FF
.	.	[8f	.	8C
.	4g	8f]	4c	8GG
.	.	8e	.	8C
=16	=16	=16	=16	=16
2r	4f	4c	8A	4AA
.	.	.	8c	.
.	4g	4e	8E	4C
.	.	.	8c	.
=17	=17	=17	=17	=17
2r	8a	4c	8F	4FF
.	8cc	.	8c	.
.	8e	4c	8G	4CC
.	8cc	.	8c	.
=18	=18	=18	=18	=18
4ff	8a	8c	8A	8FF
.	8b-	8B-	8G	8GG
4ff	8cc	8A	4F	8AA
.	8a	[8c	.	8FF
=19	=19	=19	=19	=19
8ee	4g	4c]	2r	4C
8gg	.	.	.	.
8b	4g	4G	.	4D
8gg	.	.	.	.
=20	=20	=20	=20	=20
8cc	4g	4G	2r	4E
8gg	.	.	.	.
8dd	4g	4G	.	4BB
8gg	.	.	.	.
=21	=21	=21	=21	=21
8ee	8g	4G	8cc	4C
8cc	8e	.	8r	.
8dd	8f	4r	4r	4CC
8ee	8g	.	.	.
=22	=22	=22	=22	=22
4ff	8a	4c	4C	4FF
.	8cc	.	.	.
4gg	8e	4r	4r	4r
.	8cc	.	.	.
=23	=23	=23	=23	=23
4aa	8f	2r	2r	2r
.	8cc	.	.	.
4ee	8g	.	.	.
.	8cc	.	.	.
=24	=24	=24	=24	=24
8ff	8a	2r	2r	4F
8gg	8b-	.	.	.
8aa	8cc	.	.	4F
16gg	16b-	.	.	.
16ff	16a	.	.	.
=25	=25	=25	=25	=25
8gg	8g	2r	2r	8E
16ff	8cc	.	.	8G
16ee	.	.	.	.
8ff	4g	.	.	8BB
8dd	.	.	.	8G
=26	=26	=26	=26	=26
8ee	4g	2r	2r	8C
16dd	.	.	.	8G
16cc	.	.	.	.
4b	4f	.	.	8D
.	.	.	.	8G
=27	=27	=27	=27	=27
4ccc	8g	8r	2r	8E
.	8r	8e	.	8C
4ccc	4r	8f	.	8D
.	.	8g	.	8E
=28	=28	=28	=28	=28
8aa	2r	[2c	2r	4F
8ccc	.	.	.	.
8ee	.	.	.	4A
8ccc	.	.	.	.
=29	=29	=29	=29	=29
8ff	2r	2c]	2r	4B-
8ccc	.	.	.	.
8gg	.	.	.	4E
8ccc	.	.	.	.
=30	=30	=30	=30	=30
16aa	2r	16c	2r	[2F
16ff	.	16A	.	.
16gg	.	16B-	.	.
16aa	.	16c	.	.
16bb-	.	16d	.	.
16gg	.	16B-	.	.
16aa	.	16c	.	.
16bb-	.	16d	.	.
=31	=31	=31	=31	=31
16aa	2r	16c	2r	2F_
16gg	.	16B-	.	.
16ff	.	16A	.	.
16aa	.	16c	.	.
16gg	.	16B-	.	.
16ff	.	16A	.	.
16ee	.	16G	.	.
16gg	.	16B-	.	.
=32	=32	=32	=32	=32
4ff	2r	8A	2r	8F]
.	.	8F	.	8E-
4ff	.	8G	.	8D
.	.	8A	.	8C
=33	=33	=33	=33	=33
8dd	2r	4B-	2r	4BB-
8ff	.	.	.	.
8a	.	[4F	.	4C
8ff	.	.	.	.
=34	=34	=34	=34	=34
8b-	2r	2F_	2r	4D
8ff	.	.	.	.
8cc	.	.	.	4AA
8ff	.	.	.	.
=35	=35	=35	=35	=35
8dd	2r	8F]	2r	[2BB-
8b-	.	8D	.	.
8ee-	.	8G	.	.
8cc	.	8E-	.	.
=36	=36	=36	=36	=36
8dd	2r	8F	2r	2BB-_
8b-	.	8D	.	.
8cc	.	8E-	.	.
8a	.	8C	.	.
=37	=37	=37	=37	=37
8b-	2r	8D	2r	2BB-_
8dd	.	8F	.	.
8ee-	.	4G	.	.
8dd	.	.	.	.
=38	=38	=38	=38	=38
8cc	2r	2A	2r	4BB-]
16dd	.	.	.	.
16ee	.	.	.	.
8ff	.	.	.	4r
8ee-	.	.	.	.
=39	=39	=39	=39	=39
8dd	2r	4B-	2r	8BB-
8ee-	.	.	.	8C
8ff	.	4B-	.	8D
8dd	.	.	.	8BB-
=40	=40	=40	=40	=40
4cc	2r	8A	2r	8F
.	.	8B-	.	8G
[4ff	.	8c	.	8A
.	.	8A	.	8F
=41	=41	=41	=41	=41
8ff]	2r	4G	2r	8C
16ee-	.	.	.	8D
16dd	.	.	.	.
4ee-	.	[4c	.	8E-
.	.	.	.	8C
=42	=42	=42	=42	=42
4dd	2r	8c]	2r	4GG
.	.	16B-	.	.
.	.	16A	.	.
4gg	.	4B-	.	4G
=43	=43	=43	=43	=43
4dd	4ff#	8A	2r	8D
.	.	8F#	.	8C
4dd	4r	8G	.	8BB-
.	.	8A	.	8AA
=44	=44	=44	=44	=44
8b-	2r	8B-	2r	4GG
8dd	.	8G	.	.
8f#	.	[4D	.	4AA
8dd	.	.	.	.
=45	=45	=45	=45	=45
8g	2r	[2D_	2r	4BB-
8dd	.	.	.	.
8a	.	.	.	4FF#
8dd	.	.	.	.
=46	=46	=46	=46	=46
4b-	4g	8D]	2r	2GG
.	.	16E-	.	.
.	.	16F	.	.
4b	4g	4G	.	.
=47	=47	=47	=47	=47
4cc	8e-	[2G	2r	4CC
.	8g	.	.	.
4dd	8B	.	.	4r
.	8g	.	.	.
=48	=48	=48	=48	=48
8ee-	8c	2G]	2r	2r
16dd	8g	.	.	.
16cc	.	.	.	.
4b	8d	.	.	.
.	8g	.	.	.
=49	=49	=49	=49	=49
8cc	4e-	2r	2r	4C
8b-	.	.	.	.
8a	4e	.	.	4C
8g	.	.	.	.
=50	=50	=50	=50	=50
4a	4f	2r	4c	8AA
.	.	.	.	8C
4cc	4g	.	4c	8EE
.	.	.	.	8C
=51	=51	=51	=51	=51
4cc	4f	2r	8A	8FF
.	.	.	8c	8C
4cc	4e	.	8E	8GG
.	.	.	8c	8C
=52	=52	=52	=52	=52
4cc	4f	4c	8F	8AA
.	.	.	8c	8C
4cc	4g	4c	8G	8EE
.	.	.	8c	8C
=53	=53	=53	=53	=53
4ff	8a	8c	8A	8FF
.	8g	8B-	8B-	8GG
4ff	8f	8A	8c	8AA
.	8cc	8c	8A	8FF
=54	=54	=54	=54	=54
8ee	4g	4c	2r	[2C
8gg	.	.	.	.
8b	4r	4d	.	.
8gg	.	.	.	.
=55	=55	=55	=55	=55
8cc	2r	8e	2r	2C_
8gg	.	8c	.	.
8dd	.	8B	.	.
8gg	.	8G	.	.
=56	=56	=56	=56	=56
8ee	2r	8c	2r	2C_
8cc	.	8e	.	.
8b	.	8d	.	.
8dd	.	8f	.	.
=57	=57	=57	=57	=57
8cc	2r	8e	4c	2C_
8dd	.	8f	.	.
4ee	.	4g	4c	.
=58	=58	=58	=58	=58
4ff	2r	4a	8A	2C_
.	.	.	8c	.
4gg	.	4b-	8E	.
.	.	.	8c	.
=59	=59	=59	=59	=59
4ff	2r	4a	8F	2C_
.	.	.	8c	.
4ee	.	4b-	8G	.
.	.	.	8c	.
=60	=60	=60	=60	=60
4ff	4cc	4f	8A	4C]
.	.	.	8c	.
4gg	4r	4cc	8E	4C
.	.	.	8c	.
=61	=61	=61	=61	=61
4aa	2r	4cc	8F	8AA
.	.	.	16G	8C
.	.	.	16A	.
4gg	.	4b-	8B-	8EE
.	.	.	8A	8C
=62	=62	=62	=62	=62
4ff	2r	4a	8A	8FF
.	.	.	16G	8C
.	.	.	16F	.
4gg	.	4b-	4E	8GG
.	.	.	.	8C
=63	=63	=63	=63	=63
4ff	2r	8cc	8F	8AA
.	.	8dd	8B-	8BB-
4ee	.	4b-	4G	4C
=64	=64	=64	=64	=64
2ff 2cc	2a	2r	2F 2A	2FF
==	==	==	==	==
*-	*-	*-	*-	*-
